X: 54
T:Walled Garden Waltz
M:3/4
L:1/8
C:Andy Cutting
R:Waltz
N:http://www.lesession.co.uk
Z:Steve Mansfield 1998-2001
K:G
D2 (G2 G)G | AB G2 AB | cB AB AG | FG EF D2 | 
D2 (G2 G)G | AB G2 AB | cB AB AG |1 A6 :|2 A4 Bc |: 
d2 B2 d2 | ed cd cB | cB AB AG | FG EF D2 | 
d2 B2 d2 | ed cd cB | cB AB AG |1 A4 Bc :|2 A6 ||
<end>
<start>
